public/images/hamburger.svg

<svg width="32" height="32" fill="none" xmlns="http://www.w3.org/2000/svg"><defs><clipPath id="a"><rect rx="0" width="31" height="31" transform="translate(.5 .5)" fill="#fff" fill-opacity="0"/></clipPath></defs><rect rx="0" width="31" height="31" transform="translate(.5 .5)" fill="none"/><g clip-path="url(#a)" fill="#0B0B0B"><path d="M28 10H4a1 1 0 0 1-.71-.3A.984.984 0 0 1 3 9a.99.99 0 0 1 1-1h24c.26 0 .51.1.7.29A1 1 0 0 1 29 9c0 .26-.11.51-.3.7-.19.19-.44.3-.7.3zM28 17H4a1 1 0 0 1-.71-.3A.984.984 0 0 1 3 16a.99.99 0 0 1 1-1h24c.26 0 .51.1.7.29a1 1 0 0 1 .3.71c0 .26-.11.51-.3.7-.19.19-.44.3-.7.3zM28 24H4a1 1 0 0 1-.71-.3A.984.984 0 0 1 3 23a.99.99 0 0 1 1-1h24c.26 0 .51.1.7.29a1 1 0 0 1 .3.71c0 .26-.11.51-.3.7-.19.19-.44.3-.7.3z"/></g></svg>

<svg width="32.000000" height="32.000000" viewBox="0 0 32 32" fill="none" xmlns="http://www.w3.org/2000/svg" xmlns:xlink="http://www.w3.org/1999/xlink">
	<desc>
			Created with Pixso.
	</desc>
	<defs>
		<clipPath id="clip362_4713">
			<rect id="4781852_burger_line_list_menu_nav_icon 1" rx="0.000000" width="31.000000" height="31.000000" transform="translate(0.500000 0.500000)" fill="white" fill-opacity="0"/>
		</clipPath>
	</defs>
	<rect id="4781852_burger_line_list_menu_nav_icon 1" rx="0.000000" width="31.000000" height="31.000000" transform="translate(0.500000 0.500000)" fill="#FFFFFF" fill-opacity="0"/>
	<g clip-path="url(#clip362_4713)">
		<path id="Vector" d="M28 10L4 10C3.73 10 3.48 9.89 3.29 9.7C3.1 9.51 3 9.26 3 9C3 8.73 3.1 8.48 3.29 8.29C3.48 8.1 3.73 8 4 8L28 8C28.26 8 28.51 8.1 28.7 8.29C28.89 8.48 29 8.73 29 9C29 9.26 28.89 9.51 28.7 9.7C28.51 9.89 28.26 10 28 10Z" fill="#0B0B0B" fill-opacity="1.000000" fill-rule="nonzero"/>
		<path id="Vector" d="M28 17L4 17C3.73 17 3.48 16.89 3.29 16.7C3.1 16.51 3 16.26 3 16C3 15.73 3.1 15.48 3.29 15.29C3.48 15.1 3.73 15 4 15L28 15C28.26 15 28.51 15.1 28.7 15.29C28.89 15.48 29 15.73 29 16C29 16.26 28.89 16.51 28.7 16.7C28.51 16.89 28.26 17 28 17Z" fill="#0B0B0B" fill-opacity="1.000000" fill-rule="nonzero"/>
		<path id="Vector" d="M28 24L4 24C3.73 24 3.48 23.89 3.29 23.7C3.1 23.51 3 23.26 3 23C3 22.73 3.1 22.48 3.29 22.29C3.48 22.1 3.73 22 4 22L28 22C28.26 22 28.51 22.1 28.7 22.29C28.89 22.48 29 22.73 29 23C29 23.26 28.89 23.51 28.7 23.7C28.51 23.89 28.26 24 28 24Z" fill="#0B0B0B" fill-opacity="1.000000" fill-rule="nonzero"/>
	</g>
</svg>
